X:1
T:Von Himmel Hoch, LM
T:Von Himmel Hoch, LM
T:Geistliche Lieder (Leipzig, German
T:Public Domain Courtesy of the Cyber Hymnal™
C:Geistliche Lieder (Leipzig, German
Z:Public Domain
Z:Courtesy of the Cyber Hymnal™
%%score ( 1 2 ) ( 3 4 )
L:1/8
Q:1/4=105
M:4/4
K:C
V:1 treble 
V:2 treble 
V:3 bass 
V:4 bass 
V:1
 [Gc]2 | B2 [EA]2 (BA) G2 x2 | [CA]2 [DB]2 !fermata![Ec]2 c2 | c2 [EG]2 [DG]2 (EF) | %4
 [CG]2 [DF]2 !fermata![CE]2 E2 | [EA]2 [DA]2 ([DG][^FA]) [GB]2 | (cB) A2 !fermata!G2 c2 | %7
 B2 A2 G2 (AG) | ([CF][A,E]) [B,D]2 !fermata!C2 |] %9
V:2
 x2 | (G^F) x D2 ED x3 | x6 (EF) | (GF) x3 C2 x | x6 (CD) | x8 | G2 (G^F) G2 (ED) | %7
 (DE) (ED) (DC) C2 | x4 C2 |] %9
V:3
 [C,E]2 | D2 z B,2 (CB,) x3 | ([F,A,][E,G,]) [D,F,]2 !fermata![C,G,]2 G,2 | %3
 [E,C]2 C2 [G,B,]2 [G,_B,][F,A,] | G,2 G,2 !fermata![C,G,]2 [C,G,]2 | %5
 [^C,G,]2 ^F,2 ([B,,G,][A,,^C]) (B,A,) | ([D,G,][C,B,]) ([C,E][D,D]) !fermata![G,B,]2 A,2 | %7
 (G,E,) ([C,G,][D,F,]) ([B,,F,][C,E,]) ([F,A,][G,B,]) | C2 [G,,F,] !fermata![C,E,]2 x |] %9
V:4
 x2 | G,3 C2 ^F, (G,=F,) E,2 | x6 (C,D,) | x2 (E,F,) x4 | (E,D,) (C,B,,) x4 | x2 (D,=C,) x G,,2 x | %6
 x6 (G,^F,) | x8 | (A,F,) G, x3 |] %9

